localPackages/DesignSystem/Sources/DesignSystem/Resources/Assets.xcassets/IconSet/ic-user-circle.imageset/ic-user-circle.svg

<svg width="24" height="24" viewBox="0 0 24 24" fill="none" xmlns="http://www.w3.org/2000/svg">
<g id="ic-user-circle">
<path id="Icon" fill-rule="evenodd" clip-rule="evenodd" d="M12 21C14.4588 21 16.6874 20.014 18.3118 18.4157L17.55 17.4C17.1251 16.8334 16.4582 16.5 15.75 16.5H8.25C7.5418 16.5 6.87492 16.8334 6.45 17.4L5.68821 18.4157C7.3126 20.014 9.54115 21 12 21ZM18.75 16.5L19.3117 17.2489C20.3742 15.7714 21 13.9588 21 12C21 7.02944 16.9706 3 12 3C7.02944 3 3 7.02944 3 12C3 13.9588 3.62577 15.7714 4.6883 17.2489L5.25 16.5C5.9582 15.5557 7.06966 15 8.25 15H15.75C16.9303 15 18.0418 15.5557 18.75 16.5ZM12 22.5C17.799 22.5 22.5 17.799 22.5 12C22.5 6.20101 17.799 1.5 12 1.5C6.20101 1.5 1.5 6.20101 1.5 12C1.5 17.799 6.20101 22.5 12 22.5ZM14.25 9.75C14.25 10.9926 13.2426 12 12 12C10.7574 12 9.75 10.9926 9.75 9.75C9.75 8.50736 10.7574 7.5 12 7.5C13.2426 7.5 14.25 8.50736 14.25 9.75ZM15.75 9.75C15.75 11.8211 14.0711 13.5 12 13.5C9.92893 13.5 8.25 11.8211 8.25 9.75C8.25 7.67893 9.92893 6 12 6C14.0711 6 15.75 7.67893 15.75 9.75Z" fill="#0F0F0F"/>
</g>
</svg>

<svg xmlns="http://www.w3.org/2000/svg" width="24" height="24" viewBox="0 0 24 24">
  <g class="ic-user-circle">
    <path fill-rule="evenodd" d="M12 21a8.97 8.97 0 0 0 6.312-2.584L17.55 17.4a2.25 2.25 0 0 0-1.8-.9h-7.5a2.25 2.25 0 0 0-1.8.9l-.762 1.016A8.97 8.97 0 0 0 12 21Zm6.75-4.5.562.749a9 9 0 1 0-14.623 0l.561-.749a3.75 3.75 0 0 1 3-1.5h7.5a3.75 3.75 0 0 1 3 1.5Zm-6.75 6c5.799 0 10.5-4.701 10.5-10.5S17.799 1.5 12 1.5 1.5 6.201 1.5 12 6.201 22.5 12 22.5Zm2.25-12.75a2.25 2.25 0 1 1-4.5 0 2.25 2.25 0 0 1 4.5 0Zm1.5 0a3.75 3.75 0 1 1-7.5 0 3.75 3.75 0 0 1 7.5 0Z" class="Icon"/>
  </g>
</svg>
